!! 00000] TT[WS
!!!OTL: Chenshi shang kuming ren shaoyou wo
!!!ARE: Asia, China,ÿShanxi Hequ
!! Ethnic Group: Han
!! WI, 15
!!!SCT: J0016
!!!YEM: Copyright 1995, estate of Helmut Schaffrath.
**kern
*ICvox
*Ivox
*M2/4
*k[f#c#g#]
*A:
{8.ccc#
16ccc#
8ccc#
8eee
=1
8.aa
16aa
8aa
8ccc#
=2
8.ee
16cc#
8a
8ff#
=3
2b}
=4
{6ccc#
6ccc#
6eee
=5
8.aa
16aa
8aa
8ccc#
=6
8.ee
16cc#
8a
8ff#
=7
2ee}
==
!!!AGN: Shange, Shanqu. Qingge
!!!ONB: ESAC (Essen Associative Code) Database: CHINA
!!!AMT: simple duple
!!!AIN: vox
!!!EED: Helmut Schaffrath
!!!EEV: 1.0
*-
